X:1
T:Tangerine
C:Victor Schertzinger
L:1/4
M:C
I:linebreak $
K:F
"D7" z2 d B ||"Gm" A4 |"C7" z2 c A |"F6" G F"Bb7" D2 |"A7" z2"Abo" F D |$"Gm" F D"C7" E D |
"Gm" F D"C7" E COx///||"F" A4 |"Am" z2"D7" d B |$"Gm" A4 |"C7" z2 c A |"F6" G F D2 ||
[K:A]"Bø" z2"E7" E =F |$"A" E F"F#m" A F |"Bm" A F"E7" B F |"A7""_D.C. al Coda" A4 ||$
[K:F]O"Aø" A4 |"D7" z2 B c |"Gm" d B"Gm/F" (3A c B |"Eø" A2"A7" (3z G ^G |$
"Dm" A F"Dm/C" (3E G F |"Bø" E2"Bb7" z D |"Gm" ^C D F B |"Gm" d2"F#7" E2 |"F6" F4 |]

